docs/images/time-left.svg

<?xml version="1.0" encoding="iso-8859-1"?>
<!-- Generator: Adobe Illustrator 16.0.0, SVG Export Plug-In . SVG Version: 6.00 Build 0)  -->
<!DOCTYPE svg PUBLIC "-//W3C//DTD SVG 1.1//EN" "http://www.w3.org/Graphics/SVG/1.1/DTD/svg11.dtd">
<svg version="1.1" id="Capa_1" xmlns="http://www.w3.org/2000/svg" xmlns:xlink="http://www.w3.org/1999/xlink" x="0px" y="0px" viewBox="0 0 465.2 465.2" style="enable-background:new 0 0 465.2 465.2;" xml:space="preserve">
	<g>
		<g id="Layer_2_16_">
			<g>
				<path d="M279.591,423.714c-3.836,0.956-7.747,1.805-11.629,2.52c-10.148,1.887-16.857,11.647-14.98,21.804
					c0.927,4.997,3.765,9.159,7.618,11.876c3.971,2.795,9.025,4.057,14.175,3.099c4.623-0.858,9.282-1.867,13.854-3.008
					c10.021-2.494,16.126-12.646,13.626-22.662C299.761,427.318,289.618,421.218,279.591,423.714z"/>
				<path d="M417.887,173.047c1.31,3.948,3.811,7.171,6.97,9.398c4.684,3.299,10.813,4.409,16.662,2.475
					c9.806-3.256,15.119-13.83,11.875-23.631c-1.478-4.468-3.118-8.95-4.865-13.314c-3.836-9.59-14.714-14.259-24.309-10.423
					c-9.585,3.834-14.256,14.715-10.417,24.308C415.271,165.528,416.646,169.293,417.887,173.047z"/>
				<path d="M340.36,397.013c-3.299,2.178-6.704,4.286-10.134,6.261c-8.949,5.162-12.014,16.601-6.854,25.546
					c1.401,2.433,3.267,4.422,5.416,5.942c5.769,4.059,13.604,4.667,20.127,0.909c4.078-2.352,8.133-4.854,12.062-7.452
					c8.614-5.691,10.985-17.294,5.291-25.912C360.575,393.686,348.977,391.318,340.36,397.013z"/>
				<path d="M465.022,225.279c-0.407-10.322-9.101-18.356-19.426-17.953c-10.312,0.407-18.352,9.104-17.947,19.422
					c0.155,3.945,0.195,7.949,0.104,11.89c-0.145,6.473,3.021,12.243,7.941,15.711c2.931,2.064,6.488,3.313,10.345,3.401
					c10.322,0.229,18.876-7.958,19.105-18.285C465.247,234.756,465.208,229.985,465.022,225.279z"/>
				<path d="M414.835,347.816c-8.277-6.21-19.987-4.524-26.186,3.738c-2.374,3.164-4.874,6.289-7.434,9.298
					c-6.69,7.86-5.745,19.666,2.115,26.361c0.448,0.38,0.901,0.729,1.371,1.057c7.814,5.509,18.674,4.243,24.992-3.171
					c3.057-3.59,6.037-7.323,8.874-11.102C424.767,365.735,423.089,354.017,414.835,347.816z"/>
				<path d="M442.325,280.213c-9.855-3.09-20.35,2.396-23.438,12.251c-1.182,3.765-2.492,7.548-3.906,11.253
					c-3.105,8.156-0.13,17.13,6.69,21.939c1.251,0.879,2.629,1.624,4.126,2.19c9.649,3.682,20.454-1.159,24.132-10.812
					c1.679-4.405,3.237-8.906,4.646-13.382C457.66,293.795,452.178,283.303,442.325,280.213z"/>
				<path d="M197.999,426.402c-16.72-3.002-32.759-8.114-47.968-15.244c-0.18-0.094-0.341-0.201-0.53-0.287
					c-3.584-1.687-7.162-3.494-10.63-5.382c-0.012-0.014-0.034-0.023-0.053-0.031c-6.363-3.504-12.573-7.381-18.606-11.628
					C32.24,331.86,11.088,209.872,73.062,121.901c13.476-19.122,29.784-35.075,47.965-47.719c0.224-0.156,0.448-0.311,0.67-0.468
					c64.067-44.144,151.06-47.119,219.089-1.757l-14.611,21.111c-4.062,5.876-1.563,10.158,5.548,9.518l63.467-5.682
					c7.12-0.64,11.378-6.799,9.463-13.675L387.61,21.823c-1.908-6.884-6.793-7.708-10.859-1.833l-14.645,21.161
					C312.182,7.638,252.303-5.141,192.87,5.165c-5.986,1.036-11.888,2.304-17.709,3.78c-0.045,0.008-0.081,0.013-0.117,0.021
					c-0.225,0.055-0.453,0.128-0.672,0.189C123.122,22.316,78.407,52.207,46.5,94.855c-0.269,0.319-0.546,0.631-0.8,0.978
					c-1.061,1.429-2.114,2.891-3.145,4.353c-1.686,2.396-3.348,4.852-4.938,7.308c-0.199,0.296-0.351,0.597-0.525,0.896
					C10.762,149.191-1.938,196.361,0.24,244.383c0.005,0.158-0.004,0.317,0,0.479c0.211,4.691,0.583,9.447,1.088,14.129
					c0.027,0.302,0.094,0.588,0.145,0.89c0.522,4.708,1.177,9.427,1.998,14.145c8.344,48.138,31.052,91.455,65.079,125.16
					c0.079,0.079,0.161,0.165,0.241,0.247c0.028,0.031,0.059,0.047,0.086,0.076c9.142,9.017,19.086,17.357,29.793,24.898
					c28.02,19.744,59.221,32.795,92.729,38.808c10.167,1.827,19.879-4.941,21.703-15.103
					C214.925,437.943,208.163,428.223,197.999,426.402z"/>
				<path d="M221.124,83.198c-8.363,0-15.137,6.78-15.137,15.131v150.747l137.87,71.271c2.219,1.149,4.595,1.69,6.933,1.69
					c5.476,0,10.765-2.982,13.454-8.185c3.835-7.426,0.933-16.549-6.493-20.384l-121.507-62.818V98.329
					C236.243,89.978,229.477,83.198,221.124,83.198z"/>
			</g>
		</g>
	</g>
</svg>

<?xml version="1.0" encoding="UTF-8" standalone="no"?>
<!DOCTYPE svg PUBLIC "-//W3C//DTD SVG 1.1//EN" "http://www.w3.org/Graphics/SVG/1.1/DTD/svg11.dtd">
<svg width="100%" height="100%" viewBox="0 0 466 466" version="1.1" xmlns="http://www.w3.org/2000/svg" xmlns:xlink="http://www.w3.org/1999/xlink" xml:space="preserve" xmlns:serif="http://www.serif.com/" style="fill-rule:evenodd;clip-rule:evenodd;stroke-linejoin:round;stroke-miterlimit:2;">
    <g id="Layer_2_16_">
        <path d="M279.591,423.714C275.755,424.67 271.844,425.519 267.962,426.234C257.814,428.121 251.105,437.881 252.982,448.038C253.909,453.035 256.747,457.197 260.6,459.914C264.571,462.709 269.625,463.971 274.775,463.013C279.398,462.155 284.057,461.146 288.629,460.005C298.65,457.511 304.755,447.359 302.255,437.343C299.761,427.318 289.618,421.218 279.591,423.714Z" style="fill-rule:nonzero;"/>
        <path d="M417.887,173.047C419.197,176.995 421.698,180.218 424.857,182.445C429.541,185.744 435.67,186.854 441.519,184.92C451.325,181.664 456.638,171.09 453.394,161.289C451.916,156.821 450.276,152.339 448.529,147.975C444.693,138.385 433.815,133.716 424.22,137.552C414.635,141.386 409.964,152.267 413.803,161.86C415.271,165.528 416.646,169.293 417.887,173.047Z" style="fill-rule:nonzero;"/>
        <path d="M340.36,397.013C337.061,399.191 333.656,401.299 330.226,403.274C321.277,408.436 318.212,419.875 323.372,428.82C324.773,431.253 326.639,433.242 328.788,434.762C334.557,438.821 342.392,439.429 348.915,435.671C352.993,433.319 357.048,430.817 360.977,428.219C369.591,422.528 371.962,410.925 366.268,402.307C360.575,393.686 348.977,391.318 340.36,397.013Z" style="fill-rule:nonzero;"/>
        <path d="M465.022,225.279C464.615,214.957 455.921,206.923 445.596,207.326C435.284,207.733 427.244,216.43 427.649,226.748C427.804,230.693 427.844,234.697 427.753,238.638C427.608,245.111 430.774,250.881 435.694,254.349C438.625,256.413 442.182,257.662 446.039,257.75C456.361,257.979 464.915,249.792 465.144,239.465C465.247,234.756 465.208,229.985 465.022,225.279Z" style="fill-rule:nonzero;"/>
        <path d="M414.835,347.816C406.558,341.606 394.848,343.292 388.649,351.554C386.275,354.718 383.775,357.843 381.215,360.852C374.525,368.712 375.47,380.518 383.33,387.213C383.778,387.593 384.231,387.942 384.701,388.27C392.515,393.779 403.375,392.513 409.693,385.099C412.75,381.509 415.73,377.776 418.567,373.997C424.767,365.735 423.089,354.017 414.835,347.816Z" style="fill-rule:nonzero;"/>
        <path d="M442.325,280.213C432.47,277.123 421.975,282.609 418.887,292.464C417.705,296.229 416.395,300.012 414.981,303.717C411.876,311.873 414.851,320.847 421.671,325.656C422.922,326.535 424.3,327.28 425.797,327.846C435.446,331.528 446.251,326.687 449.929,317.034C451.608,312.629 453.166,308.128 454.575,303.652C457.66,293.795 452.178,283.303 442.325,280.213Z" style="fill-rule:nonzero;"/>
        <path d="M197.999,426.402C181.279,423.4 165.24,418.288 150.031,411.158C149.851,411.064 149.69,410.957 149.501,410.871C145.917,409.184 142.339,407.377 138.871,405.489C138.859,405.475 138.837,405.466 138.818,405.458C132.455,401.954 126.245,398.077 120.212,393.83C32.24,331.86 11.088,209.872 73.062,121.901C86.538,102.779 102.846,86.826 121.027,74.182C121.251,74.026 121.475,73.871 121.697,73.714C185.764,29.57 272.757,26.595 340.786,71.957L326.175,93.068C322.113,98.944 324.612,103.226 331.723,102.586L395.19,96.904C402.31,96.264 406.568,90.105 404.653,83.229L387.61,21.823C385.702,14.939 380.817,14.115 376.751,19.99L362.106,41.151C312.182,7.638 252.303,-5.141 192.87,5.165C186.884,6.201 180.982,7.469 175.161,8.945C175.116,8.953 175.08,8.958 175.044,8.966C174.819,9.021 174.591,9.094 174.372,9.155C123.122,22.316 78.407,52.207 46.5,94.855C46.231,95.174 45.954,95.486 45.7,95.833C44.639,97.262 43.586,98.724 42.555,100.186C40.869,102.582 39.207,105.038 37.617,107.494C37.418,107.79 37.266,108.091 37.092,108.39C10.762,149.191 -1.938,196.361 0.24,244.383C0.245,244.541 0.236,244.7 0.24,244.862C0.451,249.553 0.823,254.309 1.328,258.991C1.355,259.293 1.422,259.579 1.473,259.881C1.995,264.589 2.65,269.308 3.471,274.026C11.815,322.164 34.523,365.481 68.55,399.186C68.629,399.265 68.711,399.351 68.791,399.433C68.819,399.464 68.85,399.48 68.877,399.509C78.019,408.526 87.963,416.866 98.67,424.407C126.69,444.151 157.891,457.202 191.399,463.215C201.566,465.042 211.278,458.274 213.102,448.112C214.925,437.943 208.163,428.223 197.999,426.402Z" style="fill-rule:nonzero;"/>
        <path d="M221.124,83.198C212.761,83.198 205.987,89.978 205.987,98.329L205.987,249.076L343.857,320.347C346.076,321.496 348.452,322.037 350.79,322.037C356.266,322.037 361.555,319.055 364.244,313.852C368.079,306.426 365.177,297.303 357.751,293.468L236.244,230.65L236.244,98.329C236.243,89.978 229.477,83.198 221.124,83.198Z" style="fill-rule:nonzero;"/>
    </g>
</svg>
